X:679
T:Mrs. Baird
R:Reel
B:The Athole Collection
M:C|
L:1/8
K:G Minor
A|BGA^F GDD=E|F/F/F AF cFAc|1 BGA^F GDDg|fdcA G2G:|2
BGA^F GABg|fdcA G2G||
^f|gdgb =fcfa|gdgb gagd|fgdf AFAc|dBcA BGG^f|gdgb =fcfa|
gdgb gafg|dfcf AFAc|dBcA G2G||

